X:22
T:Dort niedn in jenem Holze...
R:
O:Deutschland
B:Frau Nachtigall (Straburg - 1928)
Z:<anamnese@laposte.net> -- http://anamnese.fr.st
N:p.54
M:2/4
L:1/8
Q:1/8=160
K:A
E | A>A A c/B/ | AF E A | F D/-D/ E/G/ B | A2 z A/B/ | c>B c e |
dc B c | A c B>A | GF E A | F D/-D/ E/G/ B | A2 z |]
W:
